icons/square-star-outline.svg

<svg xmlns="http://www.w3.org/2000/svg" width="24" height="24" viewBox="0 0 24 24">
  <path d="M19,2 C20.6568542,2 22,3.34314575 22,5 L22,5 L22,19 C22,20.6568542 20.6568542,22 19,22 L19,22 L5,22 C3.34314575,22 2,20.6568542 2,19 L2,19 L2,5 C2,3.34314575 3.34314575,2 5,2 L5,2 Z M19,4 L5,4 C4.44771525,4 4,4.44771525 4,5 L4,5 L4,19 C4,19.5522847 4.44771525,20 5,20 L5,20 L19,20 C19.5522847,20 20,19.5522847 20,19 L20,19 L20,5 C20,4.44771525 19.5522847,4 19,4 L19,4 Z M12.4425657,6.36281539 C12.6397783,6.46014562 12.7994058,6.61977315 12.8967361,6.81698575 L14.0572484,9.16844052 L16.6522328,9.54551383 C17.1987777,9.62493144 17.5774591,10.1323743 17.4980415,10.6789192 C17.466417,10.8965562 17.3639298,11.0976986 17.2064462,11.2512072 L15.3286978,13.0815595 L15.7719741,15.6660584 C15.8653351,16.2103948 15.4997472,16.7273507 14.9554108,16.8207118 C14.7386532,16.8578886 14.5156851,16.8225739 14.3210246,16.7202349 L12,15.5 L9.67897539,16.7202349 C9.1901308,16.9772357 8.58550365,16.7892891 8.32850284,16.3004446 C8.22616377,16.1057841 8.19084909,15.882816 8.22802594,15.6660584 L8.67130219,13.0815595 L6.79355384,11.2512072 C6.39807026,10.865706 6.38997795,10.2325927 6.77547916,9.83710915 C6.92898777,9.67962551 7.13013018,9.57713834 7.34776721,9.54551383 L9.94275162,9.16844052 L11.1032639,6.81698575 C11.3476862,6.32173209 11.9473121,6.11839309 12.4425657,6.36281539 Z"/>
</svg>

<svg xmlns="http://www.w3.org/2000/svg" viewBox="0 0 24 24">
  <path d="M19 2a3 3 0 0 1 3 3v14a3 3 0 0 1-3 3H5a3 3 0 0 1-3-3V5a3 3 0 0 1 3-3zm0 2H5a1 1 0 0 0-1 1v14a1 1 0 0 0 1 1h14a1 1 0 0 0 1-1V5a1 1 0 0 0-1-1zm-6.56 2.36c.2.1.36.26.46.46l1.16 2.35 2.6.38a1 1 0 0 1 .55 1.7l-1.88 1.83.44 2.59a1 1 0 0 1-1.45 1.05L12 15.5l-2.32 1.22a1 1 0 0 1-1.45-1.05l.44-2.59-1.88-1.83a1 1 0 0 1 .56-1.7l2.6-.38 1.15-2.35a1 1 0 0 1 1.34-.46z"/>
</svg>
